X: 14
T: The Friendly Beasts
O: English 12th centurn
%R: waltz
F: http://ancients.sudburymuster.org/mus/col/pdf/carolsF.pdf
Z: 2020 John Chambers <jc:trillian.mit.edu>
M: 3/4
L: 1/8
K: G
V: 1
V: 2
%%score (1 2)
% - - - - - - - - - -
V: 1 staves=2
G2G2A2 | B4B2 | A4F2 | G4G2 | d4d2 | e4ee | d4d2 | B4B2 ||
B4A2 | c4B2 | A4G2 | B6 | d2d2c2 | B4G2 | A4F2 | G6 |]
% - - - - - - - - - -
V: 2
G2E2EF | G2GFED | C2A,2D2 | B,4D2 | G2G4 | G2C4 | F2G2A2 | G2F2E2 ||
DEFGA2 | E3FG2 | E2C2B,^C | D2E2F2 | G4E2 | G2F2E2 | E2c2c2 | B6 |]
%% - - - - - - - - - -


